polaris-icons/icons/newicons/TypeMajor-1.svg

<svg width="20" height="20" viewBox="0 0 20 20" fill="none" xmlns="http://www.w3.org/2000/svg">
<path fill-rule="evenodd" clip-rule="evenodd" d="M9.47332 2.59591C10.249 2.30503 11.1136 2.69804 11.4045 3.47372L15.7269 15H16C16.5523 15 17 15.4477 17 16C17 16.5523 16.5523 17 16 17H12.5C11.9477 17 11.5 16.5523 11.5 16C11.5 15.4477 11.9477 15 12.5 15H12.5229L11.7729 13H6.76121L6.01611 15H6.5C7.05228 15 7.5 15.4477 7.5 16C7.5 16.5523 7.05228 17 6.5 17H4.77449C4.75815 17.0005 4.74174 17.0005 4.7253 17H4C3.44772 17 3 16.5523 3 16C3 15.4477 3.44772 15 4 15H4.41539L8.50002 4.036C8.48528 3.41561 8.85948 2.82611 9.47332 2.59591ZM7.32003 11.5H11.2104L9.25882 6.29589L7.32003 11.5Z" fill="black"/>
</svg>

<svg viewBox="0 0 20 20" fill="none" xmlns="http://www.w3.org/2000/svg"><path fill-rule="evenodd" clip-rule="evenodd" d="M9.473 2.596a1.5 1.5 0 0 1 1.931.878l4.323 11.526h.273a1 1 0 1 1 0 2h-3.5a1 1 0 1 1 0-2h.023l-.75-2h-5.012l-.745 2h.484a1 1 0 1 1 0 2h-2.5a1 1 0 1 1 0-2h.415l4.085-10.964a1.5 1.5 0 0 1 .973-1.44Zm-2.153 8.904h3.89l-1.951-5.204-1.939 5.204Z" fill="#5C5F62"/></svg>
